assets/landing_icons/stats_icons/project.svg

<svg width="16" height="16" viewBox="0 0 16 16" fill="none" xmlns="http://www.w3.org/2000/svg">
<path d="M1.1001 2.90003C1.1001 1.79546 1.99553 0.900024 3.1001 0.900024H5.5001C6.60467 0.900024 7.5001 1.79545 7.5001 2.90002V5.30002C7.5001 6.40459 6.60467 7.30002 5.5001 7.30002H3.1001C1.99553 7.30002 1.1001 6.40459 1.1001 5.30002V2.90003Z" fill="#82799E"/>
<path opacity="0.5" d="M1.1001 10.7C1.1001 9.59538 1.99553 8.69995 3.1001 8.69995H5.5001C6.60467 8.69995 7.5001 9.59538 7.5001 10.7V13.0999C7.5001 14.2045 6.60467 15.1 5.5001 15.1H3.1001C1.99553 15.1 1.1001 14.2045 1.1001 13.1V10.7Z" fill="#82799E"/>
<path opacity="0.75" d="M8.5 2.90003C8.5 1.79546 9.39543 0.900024 10.5 0.900024H12.9C14.0046 0.900024 14.9 1.79545 14.9 2.90002V5.30002C14.9 6.40459 14.0046 7.30002 12.9 7.30002H10.5C9.39543 7.30002 8.5 6.40459 8.5 5.30002V2.90003Z" fill="#82799E"/>
<path opacity="0.25" d="M8.5 10.7C8.5 9.59538 9.39543 8.69995 10.5 8.69995H12.9C14.0046 8.69995 14.9 9.59538 14.9 10.7V13.0999C14.9 14.2045 14.0046 15.1 12.9 15.1H10.5C9.39543 15.1 8.5 14.2045 8.5 13.1V10.7Z" fill="#82799E"/>
</svg>

<svg xmlns="http://www.w3.org/2000/svg" width="16" height="16" fill="none" viewBox="0 0 16 16"><path fill="#82799E" d="M1.1 2.9a2 2 0 0 1 2-2h2.4a2 2 0 0 1 2 2v2.4a2 2 0 0 1-2 2H3.1a2 2 0 0 1-2-2z"/><path fill="#82799E" d="M1.1 10.7a2 2 0 0 1 2-2h2.4a2 2 0 0 1 2 2v2.4a2 2 0 0 1-2 2H3.1a2 2 0 0 1-2-2z" opacity=".5"/><path fill="#82799E" d="M8.5 2.9a2 2 0 0 1 2-2h2.4a2 2 0 0 1 2 2v2.4a2 2 0 0 1-2 2h-2.4a2 2 0 0 1-2-2z" opacity=".75"/><path fill="#82799E" d="M8.5 10.7a2 2 0 0 1 2-2h2.4a2 2 0 0 1 2 2v2.4a2 2 0 0 1-2 2h-2.4a2 2 0 0 1-2-2z" opacity=".25"/></svg>
